X:7
T: Da nangoucha, Weggabelung)
N: C0008
O: China, Shaanxi, Wubao
S: I, 43, 1)]
N: neues Volkslied
R: Xiaodiao, Xiu hebao. Geming lishi minge]
M: 2/4
L: 1/16
K: F
c2c2d2f2 | c8 | f2dcA2G2 | F8
c2D2F4 | F2f2d2c2 | c2FGc2AG | F8
F3GA2A2 | G2c2AGF2 | G2G2G2D2 | F3DC4

